brandFactory_export/2.Regular/Escudo ok seguridad ok _2Regular.svg

<?xml version="1.0" encoding="UTF-8"?>
<svg width="24px" height="24px" viewBox="0 0 24 24" version="1.1" xmlns="http://www.w3.org/2000/svg" xmlns:xlink="http://www.w3.org/1999/xlink">
    <title>2.Regular/Escudo ok seguridad ok _2Regular</title>
    <g id="Symbols" stroke="none" stroke-width="1" fill="none" fill-rule="evenodd">
        <g id="2.Regular/Escudo-ok-seguridad-ok-_2Regular" fill="#5CB615" fill-rule="nonzero">
            <path d="M20.7361345,14.7529412 C21.1731092,12.1915966 21.2436975,6.65210084 21.2537815,4.57815126 C19.2369748,4.67563025 17.9731092,3.84201681 16.7529412,3.02521008 C15.5428571,2.21512605 14.4,1.4487395 12.3529412,1.44537815 L12.3462185,1.44537815 C10.2991597,1.44537815 9.15630252,2.21176471 7.94285714,3.02521008 C6.72605042,3.83865546 5.47563025,4.67226891 3.44537815,4.57815126 C3.45546218,6.65210084 3.52605042,12.1915966 3.9697479,14.7529412 C4.46386555,17.6168067 9.91932773,20.8840336 12.3495798,22.097479 C14.7831933,20.8840336 20.2453782,17.610084 20.7361345,14.7529412 Z M22.6858551,3.76806723 C22.6858551,4.0907563 22.7092437,11.707563 22.1478992,15.0016807 C21.4016807,19.3344538 13.0151261,23.3848739 12.6588235,23.5563025 C12.5613445,23.6033613 12.4571429,23.6235294 12.3529412,23.6235294 C12.2487395,23.6235294 12.1445378,23.6 12.0470588,23.5529412 C11.6907563,23.3848739 3.31092437,19.3310924 2.56470588,15.0016807 C1.99327731,11.707563 2.01344538,4.0907563 2.01680672,3.76806723 C2.01680672,3.54621849 2.1210084,3.33781513 2.29243697,3.2 C2.46722689,3.06218487 2.69243697,3.01848739 2.90420168,3.06890756 C4.84033613,3.37478992 5.86218487,2.68571429 7.15630252,1.81848739 C8.4302521,0.964705882 9.87226891,0 12.3495798,0 L12.3596639,0 C14.8369748,0.00336134454 16.2756303,0.968067227 17.5495798,1.82184874 C18.8436975,2.68907563 19.8689076,3.37478992 21.8285714,3.06890756 C22.0336134,3.03529412 22.2621849,3.09243697 22.4201681,3.2302521 C22.5747899,3.36134454 22.6823529,3.55966387 22.6858551,3.76806723 Z M10.5647059,14.0705882 L16.5445378,8.02016807 C16.8235294,7.73781513 17.2773109,7.73781513 17.5563025,8.02016807 C17.8352941,8.30252101 17.8352941,8.75966387 17.5563025,9.04201681 L11.0722689,15.6033613 C10.9378151,15.7378151 10.7563025,15.8151261 10.5680672,15.8151261 C10.3798319,15.8151261 10.194958,15.7378151 10.0638655,15.6033613 L7.15294118,12.6554622 C6.87394958,12.3731092 6.87394958,11.9159664 7.15294118,11.6336134 C7.43193277,11.3512605 7.88571429,11.3512605 8.16470588,11.6336134 L10.5647059,14.0705882 Z" id="Escudo-ok-seguridad-ok-_2Regular"></path>
        </g>
    </g>
</svg>

<svg width="24" height="24" viewBox="0 0 24 24" xmlns="http://www.w3.org/2000/svg"><path d="M20.736 14.753c.437-2.561.508-8.1.518-10.175-2.017.098-3.28-.736-4.501-1.553-1.21-.81-2.353-1.576-4.4-1.58h-.007c-2.047 0-3.19.767-4.403 1.58-1.217.814-2.467 1.647-4.498 1.553.01 2.074.081 7.614.525 10.175.494 2.864 5.95 6.131 8.38 7.344 2.433-1.213 7.895-4.487 8.386-7.344zm1.95-10.985c0 .323.023 7.94-.538 11.234-.746 4.332-9.133 8.383-9.49 8.554a.702.702 0 01-.612-.003c-.355-.168-8.735-4.222-9.481-8.551-.572-3.294-.552-10.911-.548-11.234a.716.716 0 01.887-.7c1.936.307 2.958-.382 4.252-1.25C8.43.965 9.872 0 12.35 0h.01c2.477.003 3.916.968 5.19 1.822 1.294.867 2.319 1.553 4.279 1.247a.738.738 0 01.857.7zM10.565 14.071l5.98-6.05a.71.71 0 011.011 0 .728.728 0 010 1.021l-6.484 6.561a.71.71 0 01-1.008 0l-2.911-2.948a.728.728 0 010-1.021.71.71 0 011.012 0l2.4 2.437z" fill="#5CB615" fill-rule="nonzero"/></svg>
